!!!COM:	Tinctoris, Johannes
!!!CDT:	~1435///-1511//
!!!OTL:	Lamentationes Jeremie
!!!AGN:	Motet
!!!SCT:	Tin2003
!!!SCA:	Tin2003
!!!voices:	4
**kern	**kern	**kern	**kern
*staff4	*staff3	*staff2	*staff1
*Ivox	*Ivox	*Ivox	*Ivox
*I"Bassus	*I"Tenor	*I"Altus	*I"Superius
*I'B	*I'T	*I'A	*I'S
*>[A,B,C,D,E,F,G,H,I,J,K]	*>[A,B,C,D,E,F,G,H,I,J,K]	*>[A,B,C,D,E,F,G,H,I,J,K]	*>[A,B,C,D,E,F,G,H,I,J,K]
*>A	*>A	*>A	*>A
*clefF4	*clefGv2	*clefGv2	*clefG2
*k[b-]	*k[b-]	*k[b-]	*k[b-]
*M2/1	*M2/1	*M2/1	*M2/1
*met(C|)	*met(C|)	*met(C|)	*met(C|)
!!section: Aleph
!!!OMD: Aleph
=1-	=1-	=1-	=1-
0G	0G	[0d	[0g
=2	=2	=2	=2
1.G	1.B-	1d]	0g]
.	.	[1d	.
4F\	2c\	.	.
4E\	.	.	.
=3	=3	=3	=3
0D	0d	2d\]	1.f#
.	.	4c\	.
.	.	4B-\	.
.	.	1A	.
.	.	.	4g/
.	.	.	4a/
=4	=4	=4	=4
0GG	1.d	1G	2.b-\
.	.	.	4cc\
.	.	[1d	2b-\
.	4c\	.	4a/
.	4B-\	.	4g/
=5	=5	=5	=5
[0D	[0A	0d]	[0f#i
=6	=6	=6	=6
0D;]	0A;]	0d;	0f#;]
=7	=7	=7	=7
1.D	1.A	0d	1.fni
4C/	2B-\	.	2g/
4BB-/	.	.	.
=8	=8	=8	=8
1AA	1c	2e\	1a
.	.	2f\	.
[1GG	[1d	[1g	2r
.	.	.	[2b-\
=9	=9	=9	=9
2GG/]	2d\]	2g\]	2b-\]
2AA/	2c\	4f\	2a/
.	.	4e\	.
1BB-	1B-	1d	[1g
=10	=10	=10	=10
1C	0A	1c	2g/]
.	.	.	4f#i/
.	.	.	4e/
1D	.	1A	1f#i
=11	=11	=11	=11
[0GGl	[0Gl	1.B-	[0gl
.	.	2c\	.
=12	=12	=12	=12
0GG]	0G]	0dl	0g]
!!LO:LB:i:g=z
=13||	=13||	=13||	=13||
*>B	*>B	*>B	*>B
*clefF4	*clefGv2	*clefGv2	*clefG2
*k[b-]	*k[b-]	*k[b-]	*k[b-]
*M2/1	*M2/1	*M2/1	*M2/1
*met(C|)	*met(C|)	*met(C|)	*met(C|)
!!section: Quomodo sedet sola civitas
!!!OMD: Quomodo sedet sola civitas
[0G	[0B-	[0d	0g
=14	=14	=14	=14
0G]	0B-]	0d]	1.g
.	.	.	2f/
=15	=15	=15	=15
0A	0c	1r	1e
.	.	[1A	1e
=16	=16	=16	=16
0D	0d	2A/]	[0d
.	.	2G/	.
.	.	1A	.
=17	=17	=17	=17
1G	1r	0B-	0d]
[1B-	[1G	.	.
=18	=18	=18	=18
2B-\]	2G/]	0G	0d
2A\	2A/	.	.
2G\	2B-\	.	.
4F\	4A/	.	.
4E\	4G/	.	.
=19	=19	=19	=19
2.F\	1A	2.D/	0d
4G\	.	4E/	.
1A	1D	1F	.
=20	=20	=20	=20
1.G	1.B-	[0G	0d
2A\	2A/	.	.
=21	=21	=21	=21
2B-\	2G/	1G]	0d
4A\	4F/	.	.
4G\	4E/	.	.
1A	2.F/	1D	.
.	4G/	.	.
=22	=22	=22	=22
0D	1.A	0F	1.f
.	2B-\	.	4e/
.	.	.	4d/
=23	=23	=23	=23
1A	1c	0r	1e
1D	[1d	.	1f
=24	=24	=24	=24
0A	2d\]	0r	0e
.	4c#i\	.	.
.	4Bni\	.	.
.	1c#i	.	.
=25	=25	=25	=25
1r	0d	1D	[0d
1D	.	[1F	.
=26	=26	=26	=26
1.F	1D	2F/]	0d]
.	.	2G/	.
.	[1F	1A	.
2G\	.	.	.
=27	=27	=27	=27
1A	2F/]	1.D	0r
.	2G/	.	.
[1D	1A	.	.
.	.	2E/	.
=28	=28	=28	=28
2D\]	1.D	2F/	1.f
2E\	.	2G/	.
[1F	.	[1A	.
.	2E/	.	2g/
=29	=29	=29	=29
1F]	2F/	1A]	1a
.	4G/	.	.
.	4A/	.	.
[1G	[1B-	1G	[1d
=30	=30	=30	=30
2G\]	2B-\]	[0d	2d/]
2F\	2c\	.	2e/
1D	[1d	.	2f/
.	.	.	4g/
.	.	.	4a/
=31	=31	=31	=31
0G	2d\]	0d]	2b-\
.	2c\	.	2a/
.	1B-	.	1g
=32	=32	=32	=32
0D	0A	0d	2f#i/
.	.	.	2e/
.	.	.	1f#i
=33	=33	=33	=33
[0GG	[0G	[0d	[0g
=34	=34	=34	=34
0GG]	0G]	0d]	0g]
=35	=35	=35	=35
0r	0r	0r	0r
=36	=36	=36	=36
[0C	0G	0c	0g
=37	=37	=37	=37
0C]	0c	1.G	0e
.	.	2A/	.
=38	=38	=38	=38
[0BB-	[0d	[0B-	[0f
=39	=39	=39	=39
0BB-]	0d]	0B-]	1f]
.	.	.	2e/
.	.	.	2d/
=40	=40	=40	=40
0C	1.c	0G	0e
.	4B-\	.	.
.	4A/	.	.
=41	=41	=41	=41
0G	0B-	1r	0d
.	.	1G	.
=42	=42	=42	=42
[0C	0c	[0G	1r
.	.	.	[1c
=43	=43	=43	=43
0C]	1r	1G]	2c/]
.	.	.	2d/
.	1c	1G	2e/
.	.	.	4d/
.	.	.	4e/
=44	=44	=44	=44
0BB-	1d	1.B-	1f
.	[1B-	.	[1d
.	.	2c\	.
=45	=45	=45	=45
0GG	2B-\]	[0d	2d/]
.	2A/	.	2c/
.	[1G	.	1B-
=46	=46	=46	=46
0D	2G/]	0d]	0A
.	4F#i/	.	.
.	4E/	.	.
.	1F#i	.	.
=47	=47	=47	=47
0GG	[0G	1r	0G
.	.	[1d	.
=48	=48	=48	=48
1.GG	0G]	2d\]	1r
.	.	2d\	.
.	.	1d	[1d
2GG/	.	.	.
=49	=49	=49	=49
0GG	1r	1.B-	2d/]
.	.	.	2d/
.	[1G	.	1d
.	.	4c\	.
.	.	4d\	.
=50	=50	=50	=50
[0C	2G/]	[0e	1r
.	2G/	.	.
.	1G	.	[1g
=51	=51	=51	=51
0C]	0c	0e]	2g/]
.	.	.	2f/
.	.	.	2e/
.	.	.	4d/
.	.	.	4c/
=52	=52	=52	=52
1GG	1B-	1d	1d
[1C	[1G	[1c	[1e
=53	=53	=53	=53
0C]	2G/]	2c\]	2e/]
.	2F/	2B-\	2d/
.	1E	[1G	[1c
=54	=54	=54	=54
0GG	0D	0G]	2c/]
.	.	.	4Bni/
.	.	.	4A/
.	.	.	1Bni
=55	=55	=55	=55
1r	[0C	1.E	[0c
[1C	.	.	.
.	.	2F/	.
=56	=56	=56	=56
2C/]	0C]	0G	0c]
2D\	.	.	.
1E	.	.	.
=57	=57	=57	=57
1.F	0r	1A	0r
.	.	2r	.
2G\	.	2B-\	.
=58	=58	=58	=58
1A	0r	1c	0r
[1B-	.	[1d	.
=59	=59	=59	=59
2B-\]	0r	2d\]	0r
2A\	.	2c\	.
[1G	.	1B-	.
=60	=60	=60	=60
2G\]	0r	0A	0r
4F#i\	.	.	.
4E\	.	.	.
1F#i	.	.	.
=61	=61	=61	=61
0G	0G	0G	0d
=62	=62	=62	=62
[0C	[0c	1r	[0e
.	.	[1G	.
=63	=63	=63	=63
0C]	1c]	0G]	1e]
.	2B-\	.	2d/
.	2A/	.	2c/
=64	=64	=64	=64
0G	[0B-	1G	[0d
.	.	[1B-	.
=65	=65	=65	=65
1.G	0B-]	2B-\]	0d]
.	.	2c\	.
.	.	1d	.
2F\	.	.	.
=66	=66	=66	=66
1E	1c	1G	1r
[1D	[1d	[1A	[1f
=67	=67	=67	=67
0D]	2d\]	0A]	2f/]
.	2e\	.	2g/
.	1f	.	1a
=68	=68	=68	=68
1.G	0d	0G	0b-
4F\	.	.	.
4E\	.	.	.
=69	=69	=69	=69
1F	1c	1A	1a
1G	1B-	[1d	[1g
=70	=70	=70	=70
0D	0A	2d\]	2g/]
.	.	4c\	4f#i/
.	.	4B-\	4e/
.	.	1c	1f#i
=71	=71	=71	=71
[0GGl	[0Gl	1.B-	[0gl
.	.	2c\	.
=72	=72	=72	=72
0GG]	0G]	0dl	0g]
!!LO:LB:i:g=z
=73||	=73||	=73||	=73||
*>C	*>C	*>C	*>C
*clefF4	*clefGv2	*clefGv2	*clefG2
*k[b-]	*k[b-]	*k[b-]	*k[b-]
*M2/1	*M2/1	*M2/1	*M2/1
*met(C|)	*met(C|)	*met(C|)	*met(C|)
!!section: Beth
!!!OMD: Beth
[0G	[0B-	0d	[0g
=74	=74	=74	=74
0G]	0B-]	1.d	0g]
.	.	2e\	.
=75	=75	=75	=75
0D	1A	1.f	1.a
.	1B-	.	.
.	.	4e\	4g/
.	.	4d\	4f/
=76	=76	=76	=76
[0A	[0c	1e	[0e
.	.	[1A	.
=77	=77	=77	=77
0A]	0c]	2A/]	0e]
.	.	2B-\	.
.	.	1c	.
=78	=78	=78	=78
1D	0d	1A	1.f
1BB-	.	1B-	.
.	.	.	4e/
.	.	.	4d/
=79	=79	=79	=79
1C	1c	1G	1e
1D	[1B-	1F	[1d
=80	=80	=80	=80
0GG	2B-\]	1D	2d/]
.	2A/	.	2c/
.	1G	[1d	2B-/
.	.	.	4A/
.	.	.	4G/
=81	=81	=81	=81
[0Dl	[0Fl	0d]	[0Al
=82	=82	=82	=82
0D]	0F]	0dl	0A]
!!LO:LB:i:g=z
=83||	=83||	=83||	=83||
*>D	*>D	*>D	*>D
*clefF4	*clefGv2	*clefGv2	*clefG2
*k[b-]	*k[b-]	*k[b-]	*k[b-]
*M2/1	*M2/1	*M2/1	*M2/1
*met(C|)	*met(C|)	*met(C|)	*met(C|)
1.D	[0F	1.A	[0a
!!section: Plorans
!!!OMD: Plorans
4C/	.	2B-\	.
4BB-/	.	.	.
=84	=84	=84	=84
0AA	0F]	0c	0a]
=85	=85	=85	=85
1GG	0G	0r	0b-
1G	.	.	.
=86	=86	=86	=86
1F	1A	1c	1a
1G	1B-	1B-	[1g
=87	=87	=87	=87
0E	0c	0G	2g/]
.	.	.	2a/
.	.	.	2g/
.	.	.	4f/
.	.	.	4e/
=88	=88	=88	=88
[0D	1.d	1.A	[0f
.	4c\	4B-\	.
.	4B-\	4c\	.
=89	=89	=89	=89
0D_	1A	1.d	0f]
.	[1d	.	.
.	.	2c\	.
=90	=90	=90	=90
0D_	2d\]	2d\	1r
.	2c\	2e\	.
.	2d\	1f	[1a
.	2e\	.	.
=91	=91	=91	=91
0D]	0f	0d	2a/]
.	.	.	2g/
.	.	.	2a/
.	.	.	2b-\
=92	=92	=92	=92
1C	1e	[0g	1cc
[1G	[1d	.	[1b-
=93	=93	=93	=93
2G\]	1d]	1g]	2b-\]
2D\	.	.	2a/
1F	1c	1f	[1a
=94	=94	=94	=94
0G	0B-	1.d	2a/]
.	.	.	4g/
.	.	.	4f/
.	.	.	1g
.	.	2e\	.
=95	=95	=95	=95
0Dl	0Al	0fl	0al
!!LO:LB:i:g=z
=96||	=96||	=96||	=96||
*>E	*>E	*>E	*>E
*clefF4	*clefGv2	*clefGv2	*clefG2
*k[b-]	*k[b-]	*k[b-]	*k[b-]
*M2/1	*M2/1	*M2/1	*M2/1
*met(C|)	*met(C|)	*met(C|)	*met(C|)
!!section: In nocte et lacrime
!!!OMD: In nocte et lacrime
0G	0B-	0r	0d
=97	=97	=97	=97
1F	1A	0r	0f
1D	[1d	.	.
=98	=98	=98	=98
[0A	1d]	0r	[0e
.	1c#i	.	.
=99	=99	=99	=99
0A]	1.c#i	0r	0e]
.	4Bni\	.	.
.	4c#i\	.	.
=100	=100	=100	=100
1r	[0d	1A	[0d
[1D	.	1d	.
=101	=101	=101	=101
0D]	2d\]	1.d	0d]
.	2r	.	.
.	1d	.	.
.	.	4c\	.
.	.	4B-\	.
=102	=102	=102	=102
0D	1.d	0A	1r
.	.	.	[1a
.	4c\	.	.
.	4B-\	.	.
=103	=103	=103	=103
1.D	1.A	1r	1a]
.	.	[1A	1a
4C/	2B-\	.	.
4BB-/	.	.	.
=104	=104	=104	=104
[0AA	[0c	0A]	1.a
.	.	.	4g/
.	.	.	4f/
=105	=105	=105	=105
0AA_	0c_	1.A	[0e
.	.	4G/	.
.	.	4F/	.
=106	=106	=106	=106
0AA]	0c]	0E	0e]
=107	=107	=107	=107
[0BB-	[0d	1D	1r
.	.	[1F	[1d
=108	=108	=108	=108
0BB-]	0d]	2F/]	2d/]
.	.	2G/	2e/
.	.	2F/	1f
.	.	4E/	.
.	.	4D/	.
=109	=109	=109	=109
1C	1c	2.E/	2e/
.	.	.	2d/
.	.	4F/	.
1GG	1B-	1G	[1g
=110	=110	=110	=110
0D	0A	1r	2g/]
.	.	.	4f#i/
.	.	.	4e/
.	.	1A	1f#i
=111	=111	=111	=111
1GG	0G	1B-	[0g
[1C	.	[1G	.
=112	=112	=112	=112
2C/]	0r	2G/]	0g_
2D\	.	2F/	.
2E\	.	2E/	.
2F\	.	2D/	.
=113	=113	=113	=113
1G	1.E	0C	0g]
[1C	.	.	.
.	2F/	.	.
=114	=114	=114	=114
2C/]	1G	0r	0r
2AA/	.	.	.
1BB-	1G	.	.
=115	=115	=115	=115
1AA	1.A	0r	1.e
[1C	.	.	.
.	4G/	.	2f/
.	4F/	.	.
=116	=116	=116	=116
2C/]	0E	0r	1g
2D\	.	.	.
1E	.	.	1g
=117	=117	=117	=117
1F	0D	1.A	1.a
1D	.	.	.
.	.	2B-\	4g/
.	.	.	4f/
=118	=118	=118	=118
0AA	0A	1c	0e
.	.	1c	.
=119	=119	=119	=119
0BB-	1.D	0d	1r
.	.	.	[1d
.	4E/	.	.
.	4F/	.	.
=120	=120	=120	=120
1.GG	1.G	1.B-	2d/]
.	.	.	4e/
.	.	.	4f/
.	.	.	[1g
4AA/	2F/	2A/	.
4BB-/	.	.	.
=121	=121	=121	=121
1.C	2E/	1G	2g/]
.	2D/	.	2f/
.	[1C	[1c	2e/
2BB-/	.	.	2d/
=122	=122	=122	=122
1AA	1C]	2c\]	1c
.	.	2B-\	.
1D	1F	2A/	[1d
.	.	2G/	.
=123	=123	=123	=123
0AA	0E	0A	2d/]
.	.	.	4c#i/
.	.	.	4Bni/
.	.	.	1c#i
=124	=124	=124	=124
0Al	0Dl	0Al	0dl
!!LO:LB:i:g=z
=125||	=125||	=125||	=125||
*>F	*>F	*>F	*>F
*clefF4	*clefGv2	*clefGv2	*clefG2
*k[b-]	*k[b-]	*k[b-]	*k[b-]
*M2/1	*M2/1	*M2/1	*M2/1
*met(C|)	*met(C|)	*met(C|)	*met(C|)
!!section: Non est qui
!!!OMD: Non est qui
0r	0r	0g	[0g
=126	=126	=126	=126
0r	0r	1.g	0g]
.	.	4f\	.
.	.	4e\	.
=127	=127	=127	=127
0r	0r	0f	0a
=128	=128	=128	=128
0r	0r	1g	1b-
.	.	1e	[1cc
=129	=129	=129	=129
0r	0r	1.f	2cc\]
.	.	.	2b-\
.	.	.	2a/
.	.	2e\	2g/
=130	=130	=130	=130
0r	0r	1.d	1b-
.	.	.	[1a
.	.	2c\	.
=131	=131	=131	=131
0r	0r	1d	2a/]
.	.	.	2g/
.	.	1B-	[1g
=132	=132	=132	=132
0r	0r	0A	2g/]
.	.	.	4f#i/
.	.	.	4e/
.	.	.	1f#i
=133	=133	=133	=133
0r	0r	[0G	[0g
=134	=134	=134	=134
0r	0r	0G]	0g]
=135	=135	=135	=135
0r	0r	0r	0r
=136	=136	=136	=136
0r	0r	0g	0b-
=137	=137	=137	=137
0r	0r	1g	1b-
.	.	1g	1b-
=138	=138	=138	=138
0r	0r	0f	0a
=139	=139	=139	=139
0r	0r	1.g	1r
.	.	.	[1g
.	.	2f\	.
=140	=140	=140	=140
0r	0r	2e\	2g/]
.	.	2d\	2f/
.	.	2c#\	2e/
.	.	4Bni\	2d/
.	.	4c#i\	.
=141	=141	=141	=141
0r	0r	1d	1f
.	.	2c\	2e/
.	.	[2B-\	[2d/
=142	=142	=142	=142
0r	0r	4B-\]	4d/]
.	.	4A/	4c/
.	.	1G	2B-/
.	.	.	1A
.	.	2F#i/	.
=143	=143	=143	=143
0r	0r	1G	0G
.	.	1r	.
=144	=144	=144	=144
0r	0r	1G	0r
.	.	2A/	.
.	.	[2B-\	.
=145	=145	=145	=145
0r	0r	2B-\]	1r
.	.	2c\	.
.	.	2d\	1G
.	.	2e\	.
=146	=146	=146	=146
0r	0r	1f	2A/
.	.	.	1B-
.	.	1g	.
.	.	.	2c/
=147	=147	=147	=147
0r	0r	2r	2d/
.	.	2c\	2e/
.	.	2d\	1f
.	.	4c\	.
.	.	4d\	.
=148	=148	=148	=148
0r	0r	1e	1.g
.	.	[1c	.
.	.	.	4a/
.	.	.	4b-\
=149	=149	=149	=149
0r	0r	2c\]	1cc
.	.	4B-\	.
.	.	4A/	.
.	.	[1G	[1b-
=150	=150	=150	=150
0r	0r	2G/]	2b-\]
.	.	2A/	2a/
.	.	2B-\	2g/
.	.	2c\	4f/
.	.	.	4e/
=151	=151	=151	=151
0r	0r	1d	1d
.	.	1B-	[1g
=152	=152	=152	=152
0r	0r	0A	2g/]
.	.	.	4f#i/
.	.	.	4e/
.	.	.	1f#i
=153	=153	=153	=153
0r	0r	0Gl	0gl
!!LO:LB:i:g=z
=154||	=154||	=154||	=154||
*>G	*>G	*>G	*>G
*clefF4	*clefGv2	*clefGv2	*clefG2
*k[b-]	*k[b-]	*k[b-]	*k[b-]
*M2/1	*M2/1	*M2/1	*M2/1
*met(C|)	*met(C|)	*met(C|)	*met(C|)
!!section: Omnes amici
!!!OMD: Omnes amici
[0G	0B-	0d	[0g
=155	=155	=155	=155
0G_	1.B-	1.d	0g]
.	2c\	4e\	.
.	.	4f\	.
=156	=156	=156	=156
0G_	0d	1.g	[0b-
.	.	4f\	.
.	.	4e\	.
=157	=157	=157	=157
0G]	1.B-	[0d	0b-]
.	4A/	.	.
.	4G/	.	.
=158	=158	=158	=158
[0D	1.F	0d_	[0a
.	2G/	.	.
=159	=159	=159	=159
0D]	0A	0d_	1a]
.	.	.	1f
=160	=160	=160	=160
0GG	0B-	0d]	1.g
.	.	.	4f/
.	.	.	4g/
=161	=161	=161	=161
1r	[0A	1e	[0a
[1D	.	2f\	.
.	.	[2d\	.
=162	=162	=162	=162
2D\]	0A]	2d\]	0a]
2E\	.	4c\	.
.	.	4B-\	.
1F	.	1A	.
=163	=163	=163	=163
1.G	1.B-	0G	1.d
4F\	2c\	.	2e/
4E\	.	.	.
=164	=164	=164	=164
1D	1d	0r	1f
1E	[1G	.	[1g
=165	=165	=165	=165
1.C	1G]	0r	2g/]
.	.	.	2f/
.	[1A	.	2e/
2BB-/	.	.	2d/
=166	=166	=166	=166
1AA	2A/]	0r	1c
.	2G/	.	.
1BB-	2F/	.	[1d
.	2D/	.	.
=167	=167	=167	=167
0AA	1E	[0A	2d/]
.	.	.	4c#i/
.	.	.	4Bni/
.	1E	.	1c#i
=168	=168	=168	=168
1r	[0D	1A]	[0d
[1D	.	[1F	.
=169	=169	=169	=169
2D\]	0D]	2F/]	0d]
2E\	.	2G/	.
2F\	.	2A/	.
2G\	.	2B-\	.
=170	=170	=170	=170
1A	0r	1c	0r
[1D	.	2d\	.
.	.	[2f\	.
=171	=171	=171	=171
2D\]	0r	2f\]	0r
2C/	.	2e\	.
1BB-	.	1d	.
=172	=172	=172	=172
1AA	0r	1c	0r
[1GG	.	2B-\	.
.	.	[2d\	.
=173	=173	=173	=173
2GG/]	0r	2d\]	0r
2AA/	.	2c\	.
1BB-	.	2d\	.
.	.	4c\	.
.	.	4B-\	.
=174	=174	=174	=174
1C	0r	1A	0r
1D	.	[1A	.
=175	=175	=175	=175
0BB-	0r	2A/]	0r
.	.	4G/	.
.	.	4F/	.
.	.	1G	.
=176	=176	=176	=176
[0AA	1.c	1.A	0a
.	2B-\	2B-\	.
=177	=177	=177	=177
0AA]	0A	1c	1a
.	.	1c	1cc
=178	=178	=178	=178
0r	0G	[0d	1.b-
.	.	.	4a/
.	.	.	4g/
=179	=179	=179	=179
0D	0A	0d]	0f
=180	=180	=180	=180
1G	1B-	1d	1g
[1F	1c	[1f	[1a
=181	=181	=181	=181
2F\]	1.A	1f]	2a/]
2E\	.	.	2g/
1D	.	1f	1f
.	2B-\	.	.
=182	=182	=182	=182
1A	1c	1c	1e
1B-	[1d	1G	1d
=183	=183	=183	=183
0A	2d\]	0r	0e
.	4c#i\	.	.
.	4Bni\	.	.
.	1c#i	.	.
=184	=184	=184	=184
[0D	0d	[0A	[0d
=185	=185	=185	=185
1D]	0r	1A]	1d]
1E	.	1G	2c/
.	.	.	2B-/
=186	=186	=186	=186
1.F	1.D	1.A	0A
4E\	4E/	2B-\	.
4D\	4F/	.	.
=187	=187	=187	=187
1C	1G	1c	1r
1E	1C	1g	1G
=188	=188	=188	=188
0D	1.F	1.f	1.A
.	4E/	4e\	2B-/
.	4F/	4d\	.
=189	=189	=189	=189
[0C	1G	[0e	[0c
.	[1C	.	.
=190	=190	=190	=190
0C_	2C/]	0e_	0c]
.	2D/	.	.
.	2E/	.	.
.	2F/	.	.
=191	=191	=191	=191
0C]	0G	0e]	1r
.	.	.	1g
=192	=192	=192	=192
[0AA	1r	1.c	1.a
.	[1c	.	.
.	.	2B-\	2b-\
=193	=193	=193	=193
0AA]	2c\]	1A	0cc
.	2B-\	.	.
.	1A	2.F/	.
.	.	4E/	.
=194	=194	=194	=194
0GG	1d	1G	1.b-
.	1G	1d	.
.	.	.	4a/
.	.	.	4g/
=195	=195	=195	=195
1D	1F	2r	1a
.	.	2d\	.
1E-	1G	2.B-\	[1g
.	.	4c\	.
=196	=196	=196	=196
0D	0A	[0dl	2g/]
.	.	.	4f#i/
.	.	.	4e/
.	.	.	1f#i
=197	=197	=197	=197
0GGl	0Gl	0d]	0gl
!!LO:LB:i:g=z
=198||	=198||	=198||	=198||
*>H	*>H	*>H	*>H
*clefF4	*clefGv2	*clefGv2	*clefG2
*k[b-]	*k[b-]	*k[b-]	*k[b-]
*M2/1	*M2/1	*M2/1	*M2/1
*met(C|)	*met(C|)	*met(C|)	*met(C|)
!!section: Gimel
!!!OMD: Gimel
[0GG	[0B-	[0d	[0g
=199	=199	=199	=199
0GG]	1B-]	0d_	1g]
.	2A/	.	2f/
.	2G/	.	2e/
=200	=200	=200	=200
0D	0A	0d]	[0f
=201	=201	=201	=201
0E-	0G	1B-	1f]
.	.	[1G	[1g
=202	=202	=202	=202
[0C	[0c	0G]	2g/]
.	.	.	2f/
.	.	.	2e-i/
.	.	.	4d/
.	.	.	4c/
=203	=203	=203	=203
0C]	0c]	[0Gl	0e-i
=204	=204	=204	=204
0GGl	0B-l	0G]	0dl
!!LO:LB:i:g=z
=205||	=205||	=205||	=205||
*>I	*>I	*>I	*>I
*clefF4	*clefGv2	*clefGv2	*clefG2
*k[b-]	*k[b-]	*k[b-]	*k[b-]
*M2/1	*M2/1	*M2/1	*M2/1
*met(C|)	*met(C|)	*met(C|)	*met(C|)
!!section: Migravit Judas
!!!OMD: Migravit Judas
[0GG	[0B-	[0G	[0d
=206	=206	=206	=206
0GG]	0B-]	0G]	0d]
=207	=207	=207	=207
[0C	[0c	[0G	[0e
=208	=208	=208	=208
0C]	1c]	0G]	1e]
.	2B-\	.	2d/
.	2A/	.	2c/
=209	=209	=209	=209
[0GG	[0B-	[0G	[0d
=210	=210	=210	=210
0GG]	0B-]	0G]	0d]
=211	=211	=211	=211
1GG	[0G	1B-	0g
1C	.	1c	.
=212	=212	=212	=212
1BB-	0G_	0d	1d
1GG	.	.	[1g
=213	=213	=213	=213
1C	0G]	1c	2g/]
.	.	.	2a/
1E-	.	2B-\	2g/
.	.	2c\	4f/
.	.	.	4e-i/
=214	=214	=214	=214
0D;	0A;	0d;	0f;
=215	=215	=215	=215
0r	0r	1.e-i	0g
.	.	4d\	.
.	.	4c\	.
=216	=216	=216	=216
0r	0r	2B-\	1.g
.	.	1c	.
.	.	[2g\	[2e/
=217	=217	=217	=217
0r	0r	4g\]	4e/]
.	.	4f\	4d/
.	.	2e\	2c/
.	.	1d	2.Bni/
.	.	.	4A/
=218	=218	=218	=218
0r	0r	1r	0c
.	.	1c	.
=219	=219	=219	=219
0r	0r	1.e	1r
.	.	.	1c
.	.	2f\	.
=220	=220	=220	=220
0r	0r	1g	1.e
.	.	[1c	.
.	.	.	2f/
=221	=221	=221	=221
0r	0r	1c]	2g/
.	.	.	4a/
.	.	.	4b-\
.	.	1e	[1cc
=222	=222	=222	=222
0r	0r	0d	2cc\]
.	.	.	4bni\
.	.	.	4a/
.	.	.	1bni
=223	=223	=223	=223
[0C	[0c	[0c	0cc
=224	=224	=224	=224
0C]	0c_	0c]	1r
.	.	.	1g
=225	=225	=225	=225
1.F	0c]	0r	1.a
4E\	.	.	4g/
4D\	.	.	4f/
=226	=226	=226	=226
1C	1c	0G	1e
[1G	1B-	.	[1d
=227	=227	=227	=227
2G\]	0G	1B-	1d]
2F\	.	.	.
1E	.	1c	[1g
=228	=228	=228	=228
0D	1.A	[0d	2g/]
.	.	.	4f/
.	.	.	4e/
.	.	.	2f/
.	4B-\	.	4g/
.	4c\	.	4a/
=229	=229	=229	=229
1GG	1.d	0d]	1b-
[1D	.	.	[1a
.	2c\	.	.
=230	=230	=230	=230
1D]	1d	0d	2a/]
.	.	.	2g/
1G	1B-	.	[1g
=231	=231	=231	=231
0D	0A	0d	2g/]
.	.	.	4f#i/
.	.	.	4e/
.	.	.	1f#i
=232	=232	=232	=232
3%4EV	0G	3%4cV	0g
3%2FZ	.	3%2dZ	.
=233	=233	=233	=233
3%4GV	0r	3%4eV	0r
3%2FZ	.	3%2dZ	.
=234	=234	=234	=234
3%2EV	0r	3%2.cV	0r
3%4DZ	.	.	.
.	.	6Bni\	.
.	.	6A/	.
.	.	3%2BniZ	.
=235	=235	=235	=235
0C	3%4cV	0c	3%4eV
.	3%2dZ	.	3%2fZ
=236	=236	=236	=236
0r	3%4e	0r	3%4gV
.	3%2d	.	3%2fZ
=237	=237	=237	=237
0r	3%2.cV	0r	3%2eV
.	.	.	3%4dZ
.	6Bni\	.	.
.	6A/	.	.
.	3%2BniZ	.	.
=238	=238	=238	=238
0r	0c	0r	0c
=239	=239	=239	=239
3%4GV	0r	3%4B-V	0r
3%2AZ	.	3%2cZ	.
=240	=240	=240	=240
3%4B-V	0r	3%4dV	0r
3%2AZ	.	3%2cZ	.
=241	=241	=241	=241
3%2.GV	0r	3%2B-V	0r
.	.	3%4AZ	.
6F#i\	.	.	.
6E\	.	.	.
3%2F#iZ	.	.	.
=242	=242	=242	=242
0G	0r	0G	0r
=243	=243	=243	=243
0r	0G	0r	3%4dV
.	.	.	[3%2eZ
=244	=244	=244	=244
0r	0A	0r	3%2e]V
.	.	.	3%4fZ
=245	=245	=245	=245
0r	3%4GV	3%4dV	0g
.	3%2cZ	[3%2eZ	.
=246	=246	=246	=246
0r	3%2AV	3%2e]V	0a
.	3%4dZ	3%4fZ	.
=247	=247	=247	=247
0r	3%4GV	3%2.gV	0g
.	.	3f\	.
.	[3%2cZ	3e\	.
.	.	3d\Z	.
=248	=248	=248	=248
0r	3c\]V	0e	3%2.ccV
.	3B-\	.	.
.	3A/	.	.
.	3G/	.	3b-\
.	3%2cZ	.	3a/
.	.	.	3g/Z
=249	=249	=249	=249
0r	3%4dV	3%4fV	3%2b-V
.	.	.	3%2.a
.	3%2cZ	3%2eZ	.
.	.	.	3g/Z
=250	=250	=250	=250
0r	3%2B-V	3%2.dV	3%2.gV
.	3%4AZ	.	.
.	.	6c\	6f#i/
.	.	6B-\	6e/
.	.	3%2cZ	3%2f#iZ
=251	=251	=251	=251
0GGl	0Gl	0dl	0gl
!!LO:LB:i:g=z
=252||	=252||	=252||	=252||
*>J	*>J	*>J	*>J
*clefF4	*clefGv2	*clefGv2	*clefG2
*k[b-]	*k[b-]	*k[b-]	*k[b-]
*M2/1	*M2/1	*M2/1	*M2/1
*met(C|)	*met(C|)	*met(C|)	*met(C|)
!!section: Omnes persecutores
!!!OMD: Omnes persecutores
[0C	1.G	1.c	[0g
.	4A/	4B-\	.
.	4B-\	4A/	.
=253	=253	=253	=253
0C]	0c	1.G	1g]
.	.	.	2f/
.	.	2A/	2e/
=254	=254	=254	=254
[0BB-	[0d	[0B-	[0f
=255	=255	=255	=255
0BB-]	0d]	0B-]	0f]
=256	=256	=256	=256
1.C	[0c	0G	0e
2D\	.	.	.
=257	=257	=257	=257
1E	0c]	0r	1r
1F	.	.	1c
=258	=258	=258	=258
1D	0r	0r	[0d
[1G	.	.	.
=259	=259	=259	=259
1G]	0r	0r	1d]
1A	.	.	1c
=260	=260	=260	=260
1D	0r	0r	1B-
[1G	.	.	1B-
=261	=261	=261	=261
2G\]	0r	0r	0A
4F#i\	.	.	.
4E\	.	.	.
1F#i	.	.	.
=262	=262	=262	=262
0G	0r	0r	0G
=263	=263	=263	=263
0r	0c	1.g	0r
.	.	4f\	.
.	.	4e\	.
=264	=264	=264	=264
0r	[0d	2.d\	0r
.	.	4e\	.
.	.	[1f	.
=265	=265	=265	=265
0r	1d]	2f\]	0r
.	.	4e\	.
.	.	4d\	.
.	1c	1e	.
=266	=266	=266	=266
0r	1B-	1d	0r
.	1B-	[1g	.
=267	=267	=267	=267
0r	0A	2g\]	0r
.	.	4f#i\	.
.	.	4e\	.
.	.	1f#i	.
=268	=268	=268	=268
0B-	0G	[0g	0d
=269	=269	=269	=269
0c	0C	1g]	0e
.	.	2f\	.
.	.	2e\	.
=270	=270	=270	=270
[0A	[0D	[0d	0f
=271	=271	=271	=271
0A]	0D]	0d]	1.f
.	.	.	4e/
.	.	.	4f/
=272	=272	=272	=272
0G	1r	1B-	1g
.	1G	1G	1b-
=273	=273	=273	=273
0D	1.F	1.A	1.a
.	4E/	2B-\	4g/
.	4F/	.	4f/
=274	=274	=274	=274
1C	1G	1c	2.e/
.	.	.	4d/
1GG	1B-	[1d	[1g
=275	=275	=275	=275
0D	0A	2d\]	2g/]
.	.	4c\	4f#i/
.	.	4B-\	4e/
.	.	1A	1f#i
=276	=276	=276	=276
1E	1G	0r	[0g
[1G	[1B-	.	.
=277	=277	=277	=277
1G]	1B-]	0r	1g]
[1F	1c	.	[1a
=278	=278	=278	=278
2F\]	1A	0r	2a/]
2E\	.	.	2g/
1D	[1d	.	1f
=279	=279	=279	=279
0A	2d\]	0r	0e
.	4c#i\	.	.
.	4Bni\	.	.
.	1c#i	.	.
=280	=280	=280	=280
1r	0d	1d	[0d
[1D	.	[1f	.
=281	=281	=281	=281
2D\]	0r	2f\]	0d]
2E\	.	2e\	.
1F	.	2d\	.
.	.	2c\	.
=282	=282	=282	=282
0G	0d	1.B-	0r
.	.	4c\	.
.	.	4d\	.
=283	=283	=283	=283
1C	2.c\	1e-i	0r
.	4B-\	.	.
1E	[1G	[1c	.
=284	=284	=284	=284
0D	2G/]	2c\]	1r
.	4F/	2Bni\	.
.	4E/	.	.
.	1F	2Bni\	1d
.	.	2A/	.
=285	=285	=285	=285
0C	1.G	0c	1.e
.	2A/	.	2f/
=286	=286	=286	=286
1BB-	1B-	1d	1g
1AA	1c	1c	1a
=287	=287	=287	=287
1.BB-	1d	1.B-	1r
.	[1f	.	[1d
2C/	.	4A/	.
.	.	4G/	.
=288	=288	=288	=288
1.D	2f\]	2F/	2d/]
.	2e\	2G/	2e/
.	1d	[1A	2f/
2E\	.	.	2g/
=289	=289	=289	=289
1F	1c	1A]	1a
[1G	1B-	1G	[1b-
=290	=290	=290	=290
2G\]	0G	1.B-	2b-\]
2F\	.	.	2g/
1E	.	.	[1g
.	.	2c\	.
=291	=291	=291	=291
0D	0A	0d	1g]
.	.	.	1f#i
=292	=292	=292	=292
0GGl	0Gl	0Gl	0gl
!!LO:LB:i:g=z
=293||	=293||	=293||	=293||
*>K	*>K	*>K	*>K
*clefF4	*clefGv2	*clefGv2	*clefG2
*k[b-]	*k[b-]	*k[b-]	*k[b-]
*M2/1	*M2/1	*M2/1	*M2/1
*met(C|)	*met(C|)	*met(C|)	*met(C|)
!!section: Jerusalem convertere
!!!OMD: Jerusalem convertere
0r	0G	0r	0d
=294	=294	=294	=294
0r	1.B-	0r	1.d
.	4c\	.	4e/
.	4d\	.	4f/
=295	=295	=295	=295
0r	0e-i	0r	0g
=296	=296	=296	=296
0r	1d	0r	1f
.	[1B-	.	[1d
=297	=297	=297	=297
0r	2B-\]	0r	2d/]
.	2A/	.	2c/
.	[1G	.	1B-
=298	=298	=298	=298
0r	2G/]	0r	0A
.	4F#i/	.	.
.	4E/	.	.
.	1F#i	.	.
=299	=299	=299	=299
0r	0G	0r	0G
=300	=300	=300	=300
0G	0r	0B-	0r
=301	=301	=301	=301
1.A	0r	1.c	0r
4G\	.	2d\	.
4F\	.	.	.
=302	=302	=302	=302
1G	0r	1e	0r
[1A	.	[1f	.
=303	=303	=303	=303
2A\]	0r	2f\]	0r
2G\	.	2e\	.
1F	.	[1d	.
=304	=304	=304	=304
0E	0r	2d\]	0r
.	.	4c#i\	.
.	.	4Bni\	.
.	.	1c#i	.
=305	=305	=305	=305
0D	0r	0d	0r
=306	=306	=306	=306
0r	1G	0r	0r
.	[1B-	.	.
=307	=307	=307	=307
0r	2B-\]	0r	1G
.	2c\	.	.
.	2d\	.	[1B-
.	2e\	.	.
=308	=308	=308	=308
0r	1f	0r	2B-/]
.	.	.	2c/
.	[1B-	.	2d/
.	.	.	2e/
=309	=309	=309	=309
0r	2B-\]	0r	1f
.	2A/	.	.
.	1B-	.	[1g
=310	=310	=310	=310
0r	0c	0r	2g/]
.	.	.	2a/
.	.	.	2g/
.	.	.	4f/
.	.	.	4e/
=311	=311	=311	=311
0r	1.d	0r	1.f
.	4c\	.	2g/
.	4B-\	.	.
=312	=312	=312	=312
0r	1A	0r	1a
.	1G	.	[1b-
=313	=313	=313	=313
0r	1B-	0r	2b-\]
.	.	.	2a/
.	1c	.	[1g
=314	=314	=314	=314
0r	0A	0r	2g/]
.	.	.	4f#i/
.	.	.	4e/
.	.	.	1f#i
=315	=315	=315	=315
0r	0G	0r	0g
=316	=316	=316	=316
1.G	0r	1.d	0r
4F\	.	2e\	.
4E\	.	.	.
=317	=317	=317	=317
1D	0r	1f	0r
[1C	.	[1g	.
=318	=318	=318	=318
2C/]	0r	2g\]	0r
2D\	.	2f\	.
2E\	.	2e\	.
2F\	.	4d\	.
.	.	4c\	.
=319	=319	=319	=319
3%4GV	0r	3%2.B-V	0r
.	.	3c\	.
3%2FZ	.	3%2dZ	.
=320	=320	=320	=320
3%4GV	0r	3%2e-iV	0r
.	.	3%2.d	.
3%2FZ	.	.	.
.	.	3c\Z	.
=321	=321	=321	=321
3%2EV	0r	3%2.cV	0r
3%4DZ	.	.	.
.	.	6Bni\	.
.	.	6A/	.
.	.	3%2BniZ	.
=322	=322	=322	=322
1C	0r	0c	0r
1E	.	.	.
=323	=323	=323	=323
1D	0r	1d	0r
[1G	.	1B-	.
=324	=324	=324	=324
2G\]	0r	0A	0r
4F#i\	.	.	.
4E\	.	.	.
1F#i	.	.	.
=325	=325	=325	=325
0G	0r	0G	0r
=326	=326	=326	=326
0r	0G	0r	0g
=327	=327	=327	=327
0r	1A	0r	1.f
.	1B-	.	.
.	.	.	4e/
.	.	.	4d/
=328	=328	=328	=328
0r	1.c	0r	1.e
.	2B-\	.	2d/
=329	=329	=329	=329
0r	2A/	0r	1e
.	2G/	.	.
.	[1d	.	[1f
=330	=330	=330	=330
0r	2d\]	0r	2f/]
.	2c\	.	2e/
.	2B-\	.	2d/
.	4A/	.	4c/
.	4G/	.	4B-/
=331	=331	=331	=331
0r	1F	0r	1A
.	1D	.	[1d
=332	=332	=332	=332
0r	0E	0r	2d/]
.	.	.	4c#i/
.	.	.	4Bni/
.	.	.	1c#i
=333	=333	=333	=333
0D	0D	0A	[0d
=334	=334	=334	=334
0GG	1r	1G	0d_
.	1G	[1d	.
=335	=335	=335	=335
1r	1.d	2d\]	0d]
.	.	2c\	.
1GG	.	2B-\	.
.	4c\	4A/	.
.	4B-\	4G/	.
=336	=336	=336	=336
1D	2A/	1.F	1r
.	4G/	.	.
.	4F/	.	.
1E	1E	.	1G
.	.	2G/	.
=337	=337	=337	=337
1F	1D	2A/	1d
.	.	2B-\	.
2G\	1C	2G/	1e
2E\	.	[2c\	.
=338	=338	=338	=338
1D	1D	2c\]	1f
.	.	2B-\	.
1C	[1E	2.c\	[1g
.	.	4d\	.
=339	=339	=339	=339
0r	2E/]	2e\	2g/]
.	2D/	2f\	2a/
.	1F	[1d	1f
=340	=340	=340	=340
1r	1G	2d\]	0e
.	.	4c#i\	.
.	.	4Bni\	.
1AA	1A	1c#i	.
=341	=341	=341	=341
1.BB-	1F	0d	1d
.	[1D	.	[1f
[2D\	.	.	.
=342	=342	=342	=342
2D\]	2D/]	1r	2f/]
2C/	2E/	.	2g/
1AA	1F	1c	1a
=343	=343	=343	=343
1GG	0G	2B-\	0b-
.	.	1d	.
1G	.	.	.
.	.	2e\	.
=344	=344	=344	=344
1F	1A	1f	1a
[1G	[1B-	[1d	[1g
=345	=345	=345	=345
2G\]	2B-\]	0d]	2g/]
2F\	2c\	.	2a/
2G\	2B-\	.	2g/
2A\	4A/	.	4f#i/
.	4G/	.	4e/
=346	=346	=346	=346
0D;	0A;	0d;	0f#i;
=347	=347	=347	=347
0GGl	0Gl	0dl	0gl
==	==	==	==
*-	*-	*-	*-
!!!RDF**kern: l=long note in original notation
!!!RDF**kern: i=editorial accidental
!!!RDF**kern: V=start of tuplet marker
!!!RDF**kern: Z=end of tuplet marker
!!!ENC:	Chris Gage 01-29-2015
!!!END:	2015/01/30/
!!!EED:	Jesse Rodin
!!!EEV:	2015/03/21/
!!!ONB:	Translated from MusicXML and edited on 2015/03/21/ by Craig Sapp
!!muse2ps: C^@{COM}^i2I150v85,85,85,150Q16
